!!!OTL: 1147. Froehlich in Ehren.
!!!ODT: 1640
!!!ARE: Europa, Mitteleuropa, Deutschland
!!!SCT: E1147
!!!TXL: @@DE
!!!YEM: Copyright 1995, estate of Helmut Schaffrath.
**kern	**text
*ICvox	*
*M4/4	*
*met(c|)	*
*k[f#]	*
*G:	*
!LO:TX:a:t=Werlin 1640.	!
{4dd	Fröh-
=1	=1
4dd	-lich
4dd	ʒu
4dd	ſein
4dd	in
=2	=2
2ee	Eh-
4dd}	-ren
{4b	bei
=3	=3
4cc	gu-
4b	-tem
4a	küh-
4a	-len
=4	=4
2g	Wein.
4r}	.
{4dd	Das
=5	=5
4dd	ſoll
4dd	mir
4dd	Nie-
4dd	-mand
=6	=6
2ee	weh-
4dd}	-ren,
{4b	denn
=7	=7
4cc	man
4b	ſagt
4a	ins-
4a	-ge-
=8	=8
2g	-mein
4r}	.
{4dd	daß
=9	=9
4ee	gu-
4ee	-ter
4dd	Mut
4cc	iſt
=10	=10
4b	hal-
4b	-ber
4b}	Leib,
{4dd	drum
=11	=11
4ee	ich
4ee	alls
4dd	Trau-
4cc	-ern
=12	=12
4b	von
4b	mir
4b}	treib.
{4dd	Der
=13	=13
4ffn	ed-
4ee	-le
4dd	Wei-
4cc#	-ne
=14	=14
2dd	gut,
4r}	.
{4ee	er-
=15	=15
4ffn	-fri-
4ee	-ſchet
4dd	mir
4cc#	das
=16	=16
2dd	Blut,
4r}	.
{4b	er-
=17	=17
4b	-quickt
4a	mich
4b	auch
4cc	im
=18	=18
2dd	Her-
4a}	-ʒen,
{4a	daß
=19	=19
4b	ich
4a	kann
4b	fröh-
4cc	-lich
=20	=20
2dd	ſcher-
4a}	-ʒen,
{4cc	aus
=21	=21
4b	fri-
4b	-ſchem
4a	frei-
4a	-em
=22	=22
2g	Muth.
4r}	.
==	==
!!!AGN: Trink -, Zech - Lied
!!!ONB: ESAC (Essen Associative Code) Database: ERK3
!!!AMT: simple quadruple
!!!AIN: vox
!!!EED: Helmut Schaffrath
!!!EEV: 1.0
!!!GTL: Trink- und Zechlieder.
!!!URL-scan: https://rosdok.uni-rostock.de/mcrviewer/recordIdentifier/rosdok_ppn745177999/iview2/phys_0081.iview2?x=175.33309798665778&y=485.11630629812134&scale=0.701185927818147&rotation=0&layout=singlePageLayout
!!!ENC: Anna Maria Matuszewska
!!!EEV: 2024/12/23
*-	*-
